X: 111
T: Green Fields of America
M: C|
R: reel
Z: Mary Lou Knack?
K: G
AB \
| "C"c2 ec "G"B2 dB | "Am"AG AB "D7"AG EF | "G"GA GE DE GB | "Am"AG AB "(G)"AG EB |
| "C"cd ec "G"Bc dB | "Am"AG AB "D7"AG EF | "G"GA GE DE GA | "D"BG AF "G"G2 :|
|: D2 \
| "G"GA Bc d2 ef | "C"gf ge "G"dB GB | "C"c2 ec "G"B2 dB | "Am"AG AB AG E2 |
| "G"gf ge dB GB | "Am"((3cBA) BG AG EF | "C"GA GE "G"DE GA | "D"BG AF "G"G2 :|
